X: 1
T: Kissing And Drinking
M: 6/8
L: 1/8
R: jig
K: Dmix
|:GEG A2D | D3 A2D | GEG A2D | D3 GEG |
GED A2D | D3 c2d | fed BcA | GEG GED :|
|:GEE BcA | ded d3 | GEE BcA | GEG GED |
G2E BcA | ded d2e | fed BcA | GEG GED :|
